svg/amplifier.svg

<svg xmlns="http://www.w3.org/2000/svg" viewBox="0 0 24 24"><path d="M10 2h4a1 1 0 0 1 1 1h6v18h-2a1 1 0 0 1-1 1 1 1 0 0 1-1-1H7a1 1 0 0 1-1 1 1 1 0 0 1-1-1H3V3h6a1 1 0 0 1 1-1M5 5v4h14V5zm2 1a1 1 0 0 1 1 1 1 1 0 0 1-1 1 1 1 0 0 1-1-1 1 1 0 0 1 1-1m5 0h2v1h-2zm3 0h1v2h-1zm2 0h1v2h-1zm-5 5a4 4 0 0 0-4 4 4 4 0 0 0 4 4 4 4 0 0 0 4-4 4 4 0 0 0-4-4m-2-5a1 1 0 0 1 1 1 1 1 0 0 1-1 1 1 1 0 0 1-1-1 1 1 0 0 1 1-1"/></svg>

<?xml version="1.0" encoding="UTF-8"?><!DOCTYPE svg PUBLIC "-//W3C//DTD SVG 1.1//EN" "http://www.w3.org/Graphics/SVG/1.1/DTD/svg11.dtd"><svg xmlns="http://www.w3.org/2000/svg" xmlns:xlink="http://www.w3.org/1999/xlink" version="1.1" id="mdi-amplifier" width="24" height="24" viewBox="0 0 24 24"><path d="M10,2H14A1,1 0 0,1 15,3H21V21H19A1,1 0 0,1 18,22A1,1 0 0,1 17,21H7A1,1 0 0,1 6,22A1,1 0 0,1 5,21H3V3H9A1,1 0 0,1 10,2M5,5V9H19V5H5M7,6A1,1 0 0,1 8,7A1,1 0 0,1 7,8A1,1 0 0,1 6,7A1,1 0 0,1 7,6M12,6H14V7H12V6M15,6H16V8H15V6M17,6H18V8H17V6M12,11A4,4 0 0,0 8,15A4,4 0 0,0 12,19A4,4 0 0,0 16,15A4,4 0 0,0 12,11M10,6A1,1 0 0,1 11,7A1,1 0 0,1 10,8A1,1 0 0,1 9,7A1,1 0 0,1 10,6Z" /></svg>
